X: 28
T: Miss McLeod's
Z: Sean Perry
S: https://thesession.org/tunes/75#setting50930
R: reel
M: 4/4
L: 1/8
K: Gmaj
|:G2 BG dGBG|B2 BA BcBA|G2 BG dGBG|A2 AG AcBA|
G2 BG dGBG|B2 BA ~B3 d|efed Bdef|g/f/e dB AcBA:|
|:G2 gf edeg|B2 BA BcBA|G2 gf edeg|a2 ab agef|
g2 gf efge|B2 BA ~B3 d|efed Bdef|g/f/e dB AcBA:|

